X:1
T:God Leads Us Along
T:George A. Young, 1903
T:God Leads Us Along
T:Public Domain
T:Public Domain
T:Public Domain
C:George A. Young, 1903
Z:Public Domain
%%score ( 1 2 ) ( 3 4 )
L:1/8
M:6/8
K:Eb
V:1 treble 
V:2 treble 
V:3 bass 
V:4 bass 
V:1
 E | [EG]>[EG][EG] [EG][EF][EG] | [GB]>[GB][GB] [EG]2 E | [DF]>[DF][DF] [DF][CE][DF] | %4
w: 1.~In|dy, green pas- tures, so rich|and so sweet, God leads|dear child- ren a- long; Where|
w: 2.~Some-|on the mount where the sun|shines so bright, God leads|dear child- ren a- long; So-|
w: 3.~Though|rows be- fall us and e-|vils op- pose, God leads|dear child- ren a- long; Thro-|
w: 4.~A-|from the mire, and a- way|from the clay, God leads|dear child- ren a- long; A-|
 [EG]3- [EG]2 E/[EF]/ | [EG]>[EG][EG] [EG][EF][EG] | [GB]>[GB][GB] [EG]2 E | %7
w: the * wa- ter’s|flow bathes the wear- y one’s|feet, God leads His dear|
w: me- * times in|val- ley, in dark- est of|night, God leads His dear|
w: ugh * grace we|con- quer, de- feat all our|foes, God leads His dear|
w: ~- * way up|glo- ry, e- ter- ni- ty’s|day, God leads His dear|
 [DF]>[DF][DF] [DF][DG][DF] | [B,E]3- [B,E]2 z ||"^Refrain" E[EG][GB] [GB] [Ge]2 | %10
w: ren a- long. * * *|||
w: ren a- long. Some through the|wa- *|ters, some through the flood,|
w: ren a- long. * * *|||
w: ren a- long. * * *|||
 [Fc][Ae]>[Ac] [GB]3 | [GB][GB]>[GB] ([Ac][GB])[EG] | [EG][EF]>[EG] [DF]3 | %13
w: |||
w: through the fire, but|all through the blood; * Some|through great sor- row,|
w: |||
w: |||
 E[EG][GB] [GB][Ge]>[GB] | [Ac][Ae][Ac] [GB]3 | [GB]>[Ac][GB] [GB][EG]>E | [DF]>E[DF] [B,E]2 |] %17
w: ||||
w: but God gives a song, In|night sea- son and|all the day long. * *||
w: ||||
w: ||||
V:2
 E | x6 | x5 E | x6 | x5 E/ x/ | x6 | x5 E | x6 | x6 || E x5 | x6 | x6 | x6 | E x5 | x6 | x6 | %16
w: sha-||His||cool||child-||||||||||
w: times||His||the||child-|||Some||||the|||
w: sor-||His||can||child-||||||||||
w: way||His||in||child-||||||||||
 x3/2 E/ x3 |] %17
w: |
w: |
w: |
w: |
V:3
 [E,G,] | [E,B,]>[E,B,][E,B,] [E,B,][E,A,][E,B,] | [E,E]>[E,E][E,E] [E,B,]2 [E,G,] | %3
 [B,,B,]>[B,,B,][B,,B,] [B,,A,][C,G,][B,,B,] | [E,B,]3- [E,B,]2 [E,G,]/[E,A,]/ | %5
 [E,B,]>[E,B,][E,B,] [E,B,][E,A,][E,B,] | [E,E]>[E,E][E,E] [E,B,]2 [E,G,] | %7
 [B,,A,]>[B,,A,][B,,A,] [B,,A,][B,,B,][B,,A,] | [E,G,]3- [E,G,]2 z || %9
 [E,G,][E,B,][E,E] [E,E] [E,B,]2 | A,[A,C]>[A,E] [E,E]3 | [E,E][E,E]>[E,E] [E,E]2 [E,B,] | %12
 [C,=A,][C,A,]>[F,A,] (B, _A,2) | [E,G,][E,B,][E,E] [E,E][E,B,]>[E,E] | [A,E][A,C][A,E] [E,E]3 | %15
 [E,E]>[E,E][E,E] [E,E][E,B,]>[G,,B,] | [B,,A,]>[B,,G,][B,,A,] [E,G,]2 |] %17
V:4
 x | x6 | x6 | x6 | x6 | x6 | x6 | x6 | x6 || x6 | x6 | x6 | x3 B,,3 | x6 | x6 | x6 | x5 |] %17

